src/svg/plane.svg

<svg xmlns="http://www.w3.org/2000/svg" width="1000" height="1000" viewBox="0 0 1000 1000"><path fill-rule="evenodd" clip-rule="evenodd" fill="#020202" d="M748.442 749.27l-292.852-117.153 234.248-322.198-322.127 292.91-234.319-117.152 732.203-351.458-117.153 615.051zm-322.198 87.807l-117.152-204.96 58.619 29.26 58.533 175.7zm146.441-117.152l-146.212 146.869-.229-205.417 146.441 58.548z"/></svg>

<?xml version="1.0" encoding="utf-8"?>
<!-- Generator: Adobe Illustrator 16.0.0, SVG Export Plug-In . SVG Version: 6.00 Build 0)  -->
<!DOCTYPE svg PUBLIC "-//W3C//DTD SVG 1.1//EN" "http://www.w3.org/Graphics/SVG/1.1/DTD/svg11.dtd">
<svg version="1.1" id="Layer_1" xmlns="http://www.w3.org/2000/svg" xmlns:xlink="http://www.w3.org/1999/xlink" x="0px" y="0px"
	 width="1000px" height="1000px" viewBox="0 0 1000 1000" enable-background="new 0 0 1000 1000" xml:space="preserve">
<path fill-rule="evenodd" clip-rule="evenodd" fill="#020202" d="M748.442,749.27L455.59,632.117l234.248-322.198l-322.127,292.91
	L133.392,485.677l732.203-351.458L748.442,749.27L748.442,749.27z M426.244,837.077l-117.152-204.96l58.619,29.26L426.244,837.077
	L426.244,837.077z M572.685,719.925L426.473,866.794l-0.229-205.417L572.685,719.925L572.685,719.925z"/>
</svg>
